packages/icons/src/svg/campaigns.svg

<svg xmlns="http://www.w3.org/2000/svg" viewBox="0 0 16 16">
    <path d="M5.1783 3.3929C5.6973 2.9859 6.2853 2.6879 6.9273 2.5079 7.8873 2.2369 8.8963 2.2539 9.8423 2.5579 9.8713 2.5669 9.9003 2.5769 9.9283 2.5869 10.6743 2.8409 11.3453 3.2609 11.8943 3.8149 11.9203 3.8419 11.9473 3.8689 11.9723 3.8949L11.0303 4.1609C10.5593 4.2939 10.2853 4.7829 10.4173 5.2539 10.5283 5.6439 10.8833 5.8999 11.2693 5.8999 11.3493 5.8999 11.4303 5.8889 11.5103 5.8659L14.6973 4.9679C14.9233 4.9049 15.1143 4.7529 15.2293 4.5489 15.3443 4.3439 15.3723 4.1009 15.3093 3.8749L14.3993.6459C14.2663.1749 13.7773-.0991 13.3063.0339 12.8353.1659 12.5613.6559 12.6943 1.1259L13.0793 2.4959C13.0753 2.4909 13.0703 2.4869 13.0663 2.4819 12.3113 1.7479 11.3963 1.1969 10.3843.8719 10.1043.7819 9.8213.7099 9.5343.6579 9.4523.6429 9.3713.6289 9.2893.6169 9.2483.6109 9.2063.6049 9.1653.5999 8.8773.5629 8.5883.5439 8.2983.5449 7.6773.5449 7.0543.6309 6.4463.8019L6.4463.8029C5.5813 1.0459 4.7873 1.4489 4.0853 1.9979 3.7003 2.2999 3.6333 2.8569 3.9343 3.2419 4.2363 3.6269 4.7933 3.6949 5.1783 3.3929M6.9502 12.7767C6.3422 12.5227 5.7942 12.1547 5.3242 11.6837 4.6172 10.9777 4.1392 10.0897 3.9422 9.1157 3.9062 8.9377 3.8802 8.7577 3.8632 8.5787 3.8572 8.5187 3.8532 8.4587 3.8492 8.3987 3.8412 8.2487 3.8382 8.0987 3.8432 7.9497 3.8562 7.5227 3.9232 7.0997 4.0432 6.6887L4.6932 7.3467C5.0372 7.6947 5.5982 7.6977 5.9462 7.3537 6.2942 7.0097 6.2972 6.4497 5.9532 6.1017L3.7622 3.8827C3.4182 3.5347 2.8572 3.5317 2.5092 3.8757L.2612 6.0977C.0902 6.2657.0042 6.4867.0002 6.7097L.0002 6.7357C.0022 6.9577.0842 7.1797.2532 7.3497.4262 7.5257.6552 7.6127.8832 7.6127 1.1082 7.6127 1.3332 7.5277 1.5062 7.3577L2.2272 6.6447C2.1372 7.0557 2.0852 7.4747 2.0722 7.8947 2.0652 8.1367 2.0702 8.3797 2.0892 8.6217 2.0952 8.7027 2.1022 8.7827 2.1122 8.8637 2.1342 9.0657 2.1652 9.2667 2.2062 9.4667 2.4722 10.7837 3.1172 11.9837 4.0712 12.9367 4.7062 13.5717 5.4452 14.0687 6.2682 14.4117 6.3802 14.4577 6.4952 14.4797 6.6092 14.4797 6.9552 14.4797 7.2852 14.2757 7.4272 13.9347 7.6152 13.4837 7.4022 12.9647 6.9502 12.7767M15.9375 6.241C15.8715 5.756 15.4245 5.417 14.9395 5.483 14.4555 5.549 14.1165 5.995 14.1825 6.48 14.2705 7.134 14.2315 7.792 14.0635 8.436 14.0405 8.527 14.0135 8.616 13.9855 8.705 13.7115 9.563 13.2185 10.326 12.5475 10.927 11.9095 11.499 11.1445 11.897 10.3175 12.09L10.5635 11.143C10.6875 10.67 10.4035 10.186 9.9305 10.063 9.4565 9.939 8.9735 10.223 8.8495 10.697L8.0155 13.9C7.9565 14.128 7.9905 14.369 8.1085 14.572 8.2285 14.774 8.4225 14.921 8.6495 14.981L11.8965 15.826C11.9715 15.845 12.0465 15.855 12.1205 15.855 12.5145 15.855 12.8735 15.59 12.9775 15.192 13.1005 14.719 12.8165 14.235 12.3435 14.112L10.9665 13.753C11.9885 13.474 12.9325 12.961 13.7295 12.247 13.9485 12.051 14.1535 11.842 14.3435 11.621 15.0215 10.835 15.5125 9.902 15.7775 8.883 16.0035 8.013 16.0575 7.124 15.9375 6.241"/>
</svg>

<svg xmlns="http://www.w3.org/2000/svg" viewBox="0 0 16 16">
	<path d="M5.178 3.393a5.01 5.01 0 0 1 1.75-.885 5.034 5.034 0 0 1 3 .079 5.059 5.059 0 0 1 1.966 1.228l.078.08-.942.266a.887.887 0 0 0 .48 1.705l3.187-.898a.885.885 0 0 0 .612-1.093L14.4.645a.885.885 0 0 0-1.705.48l.385 1.37-.013-.013a6.844 6.844 0 0 0-6.62-1.68 6.799 6.799 0 0 0-2.36 1.196.887.887 0 0 0 1.092 1.395m1.772 9.384a5.025 5.025 0 0 1-1.626-1.093 5.029 5.029 0 0 1-1.46-3.105c-.007-.06-.01-.12-.015-.18a5.043 5.043 0 0 1 .194-1.71l.65.658a.886.886 0 0 0 1.26-1.245l-2.19-2.22a.886.886 0 0 0-1.254-.006L.261 6.098a.875.875 0 0 0-.26.612v.026a.88.88 0 0 0 .883.877c.224 0 .45-.085.622-.255l.721-.713a6.836 6.836 0 0 0-.02 2.822 6.792 6.792 0 0 0 1.864 3.47 6.787 6.787 0 0 0 2.197 1.475.886.886 0 0 0 .682-1.635m8.988-6.536a.886.886 0 0 0-1.756.239 5.045 5.045 0 0 1-.197 2.225 5.059 5.059 0 0 1-3.668 3.385l.246-.947a.885.885 0 1 0-1.713-.446L8.015 13.9a.892.892 0 0 0 .093.672c.12.202.314.349.541.409l3.248.845a.887.887 0 0 0 1.081-.634.886.886 0 0 0-.634-1.08l-1.377-.359a6.833 6.833 0 0 0 4.97-7.512"/>
</svg>
